**kern
*I"钢琴, MIDI
*clefF4
*k[]
*M4/4
*MM87
=1
1r
=2
*k[b-e-a-d-g-]
16r
16FLL
16F
16FJJ
8.B-L
16B-Jk
8.cL
16cJk
8d-L
16d-L
16A-JJ
=3
8r
16FLL
16G-JJ
8.A-L
16B-Jk
8.A-L
16G-Jk
8FL
16E-L
16FJJ
=4
16r
16FLL
16F
16FJJ
8.B-L
16B-Jk
8.cL
16cJk
16d-LL
16B-
16B-
16cJJ
=5
8d-L
8fJ
8.e-L
16fJk
8.g-L
16cJk
8e-L
16d-L
[16d-JJ
=6
8d-L]
16d-L
16cJJ
8B-L
16B-L
[16A-JJ
16A-LL]
16G-JJ
4A-
16G-LL
[16FJJ
=7
16FLL]
16E-JJ
4G-
16FLL
[16E-JJ
16E-LL]
16D-JJ
4.F
=8
16r
8B-L
[16A-Jk
8A-L]
16FL
16G-JJ
8.A-L
16B-Jk
16A-LL
16G-J
8FJ
=9
8E-L
8FJ
8G-L
16FL
[16E-JJ
16E-LL]
16D-
16D-
[16D-JJ
4D-_
=10
2.D-]
4r
=11
16r
16FLL
16F
16FJJ
8.B-L
16B-Jk
8.cL
16cJk
16d-LL
16A-
16A-
16A-JJ
=12
8r
16FLL
16G-JJ
8.A-L
16B-Jk
8.A-L
16G-Jk
8FL
16E-L
16FJJ
=13
16r
16FLL
16F
16FJJ
8.B-L
16B-Jk
8.cL
16cJk
16d-LL
16B-
16B-
16cJJ
=14
8d-L
8fJ
8.e-L
16fJk
8.g-L
16cJk
8e-L
16d-L
16d-JJ
=15
8r
16d-LL
16cJJ
8B-L
16B-L
[16A-JJ
16A-LL]
16G-JJ
4A-
16G-LL
[16FJJ
=16
16FLL]
16E-JJ
4G-
16FLL
[16E-JJ
16E-LL]
16D-JJ
4.F
=17
16r
8B-L
[16A-Jk
8A-L]
16FL
16G-JJ
8.A-L
16B-Jk
16A-LL
16G-J
8FJ
=18
8E-L
8FJ
8G-L
16FL
[16E-JJ
16E-LL]
16D-
16D-
[16D-JJ
8.D-]
16r
=19
1r
=20
4r
16e-LL
16e-
16d-
16d-JJ
16B-LL
16B-
16d-
16d-JJ
16cLL
16c
16A-
16A-JJ
=21
16FLL
16F
16A-
16A-JJ
8G-L
8FJ
8G-L
8A-J
8.FL
32G-LL
32FJJJ
=22
4E-
16e-LL
16e-
16d-
16d-JJ
16B-LL
16B-
16d-
16d-JJ
16cLL
16c
16A-
16A-JJ
=23
16FLL
16F
16A-
16A-JJ
8G-L
8FJ
8E-L
8FJ
8.E-L
32FLL
32E-JJJ
=24
4D-
16e-LL
16e-
16d-
16d-JJ
16B-LL
16B-
16d-
16d-JJ
16cLL
16c
16A-
16A-JJ
=25
8FL
8A-J
16G-LL
16G-
16F
16FJJ
8G-L
8A-J
8.FL
32G-LL
32FJJJ
=26
8.E-L
16D-Jk
4D-
8.B-L
[16A-Jk
4A-]
=27
8.d-L
[16cJk
4c]
8.e-L
[16d-Jk
4d-_
=28
1d-_
=29
2d-]
16r
16d-LL
16e-
[16fJJ
8fL]
16g-L
[16a-JJ
=30
16a-LL]
16g-
16f
[16e-JJ
8e-L]
16fL
[16g-JJ
16g-LL]
16f
16e-
16d-JJ
8r
8d-
=31
16cLL
16d-
16c
16B-JJ
8A-L
16FL
16FJJ
16r
16d-LL
16e-
[16fJJ
8fL]
16g-L
[16a-JJ
=32
16a-LL]
16g-
16f
[16e-JJ
8e-L]
16fL
16fJJ
16g-LL
16f
16e-
[16d-JJ
8d-L]
8fJ
=33
16e-LL
16d-
16c
16A-JJ
8e-L
16d-L
16d-JJ
16r
16d-LL
16e-
[16fJJ
8fL]
16g-L
[16a-JJ
=34
16a-LL]
16g-
16f
[16e-JJ
8e-L]
16fL
16g-JJ
16g-LL
16f
16e-
[16d-JJ
8d-L]
8d-J
=35
16cLL
16d-
16c
16B-JJ
8A-L
16FL
16FJJ
8r
8FL
8f
8e-J
=36
8f
4g-
8f
16e-KL
8.d-J
8B-L
16d-L
[16e-JJ
=37
16e-LL]
16d-JJ
[4.d-
8d-L]
8A-
8f
8e-J
=38
8f
4g-
8f
16e-KL
8.d-J
8B-L
16d-L
[16e-JJ
=39
16e-LL]
16d-JJ
4.d-
2r
=40
1r
=41
2r
8r
16cLL
16d-JJ
8.e-L
16d-Jk
=42
16d-LL
16e-J
8fJ
8r
8f
8a-L
8f
8e-
8d-J
=43
16cLL
16d-JJ
4.e-
8r
16cLL
16d-JJ
8.e-L
16d-Jk
=44
16d-LL
16e-J
8fJ
8r
8f
8g-L
8f
8e-
8d-J
=45
8c
4.d-
8r
16cLL
16d-JJ
8.e-L
16d-Jk
=46
16d-LL
16e-J
8fJ
8r
8f
8a-L
8f
8e-
8d-J
=47
16cLL
16d-J
8e-J
8r
16e-LL
16fJJ
8.g-L
16fJk
16e-LL
16d-J
[8fJ
=48
4.f]
16fLL
16fJJ
8.g-L
16fJk
16e-LL
16d-J
8d-J
=49
1r
=50
1r
=51
2r
4r
16r
16d-LL
16e-
[16fJJ
=52
8fL]
16g-L
[16a-JJ
16a-LL]
16g-
16f
[16e-JJ
8e-L]
16fL
[16g-JJ
16g-LL]
16f
16e-
16d-JJ
=53
8r
8d-
16cLL
16d-
16c
16B-JJ
8A-L
16FL
16FJJ
16r
16d-LL
16e-
[16fJJ
=54
8fL]
16g-L
[16a-JJ
16a-LL]
16g-
16f
[16e-JJ
8e-L]
16fL
16fJJ
16g-LL
16f
16e-
[16d-JJ
=55
8d-L]
8fJ
16e-LL
16d-
16c
16A-JJ
8e-L
16d-L
16d-JJ
16r
16d-LL
16e-
[16fJJ
=56
8fL]
16g-L
[16a-JJ
16a-LL]
16g-
16f
[16e-JJ
8e-L]
16fL
[16g-JJ
16g-LL]
16f
16e-
[16d-JJ
=57
8d-L]
8d-J
16cLL
16d-
16c
16B-JJ
8A-L
16FL
16FJJ
8r
8F
=58
8fL
8e-
8f
[8g-J
8g-L]
8fJ
16e-KL
8.d-J
=59
8B-L
16d-L
[16e-JJ
16e-LL]
16d-J
[8d-J
4.d-]
8A-
=60
8fL
8e-
8f
[8g-J
8g-L]
8fJ
16e-KL
8.d-J
=61
8B-L
16d-L
[16e-JJ
16e-LL]
16d-J
[8d-J
4.d-]
8A-
=62
8fL
8e-
8f
[8g-J
8g-L]
8fJ
16e-KL
8.d-J
=63
8B-L
16d-L
[16e-JJ
16e-LL]
16d-J
[8d-J
4d-]
4r
==
*-
